assets/images/icons/src/bank.svg

<?xml version="1.0" encoding="utf-8"?>
<!-- Generated by IcoMoon.io -->
<!DOCTYPE svg PUBLIC "-//W3C//DTD SVG 1.1//EN" "http://www.w3.org/Graphics/SVG/1.1/DTD/svg11.dtd">
<svg version="1.1" xmlns="http://www.w3.org/2000/svg" xmlns:xlink="http://www.w3.org/1999/xlink" width="15" height="14" viewBox="0 0 15 14">
<path fill="#444444" d="M7.5 0l7.5 3v1h-1q0 0.203-0.16 0.352t-0.379 0.148h-11.922q-0.219 0-0.379-0.148t-0.16-0.352h-1v-1zM2 5h2v6h1v-6h2v6h1v-6h2v6h1v-6h2v6h0.461q0.219 0 0.379 0.148t0.16 0.352v0.5h-13v-0.5q0-0.203 0.16-0.352t0.379-0.148h0.461v-6zM14.461 12.5q0.219 0 0.379 0.148t0.16 0.352v1h-15v-1q0-0.203 0.16-0.352t0.379-0.148h13.922z"></path>
</svg>

<svg xmlns="http://www.w3.org/2000/svg" width="15" height="14" viewBox="0 0 15 14"><path fill="#444" d="M7.5 0L15 3v1h-1q0 .203-.16.352t-.379.148H1.539q-.219 0-.379-.148T1 4H0V3zM2 5h2v6h1V5h2v6h1V5h2v6h1V5h2v6h.461q.219 0 .379.148t.16.352v.5H1v-.5q0-.203.16-.352T1.539 11H2V5zm12.461 7.5q.219 0 .379.148T15 13v1H0v-1q0-.203.16-.352t.379-.148h13.922z"/></svg>
